resources/svg/fingerprint.svg

<svg width="15" height="15" viewBox="0 0 15 15" fill="none" xmlns="http://www.w3.org/2000/svg">
<path fill-rule="evenodd" clip-rule="evenodd" d="M10.1797 1.73509C9.35062 1.25279 8.41027 0.999347 7.45339 1C6.49652 1.00066 5.55651 1.25539 4.72803 1.73881C3.89953 2.22226 3.21168 2.91745 2.73415 3.7547C2.25662 4.59198 2.00641 5.54156 2.00903 6.50773L2.00903 6.50908L2.00903 7.25817C2.00903 7.26367 2.00894 7.26917 2.00876 7.27466C1.95203 8.99406 2.17119 10.7114 2.65775 12.3603L2.79925 12.8399L1.84013 13.1229L1.69863 12.6433C1.1826 10.8945 0.94976 9.07336 1.00903 7.24999V6.50975C1.00606 5.36949 1.30138 4.24837 1.86551 3.25927C2.42976 2.26995 3.24314 1.44748 4.22404 0.875103C5.20498 0.302714 6.31862 0.000776715 7.45271 1.49654e-06C8.5868 -0.000773721 9.70085 0.299641 10.6826 0.87069L11.1148 1.1221L10.6119 1.98649L10.1797 1.73509ZM12.7598 2.82697L13.0165 3.25609C13.7402 4.46631 14.0519 5.88075 13.9052 7.28474V8.00781C13.9044 8.70949 14.0869 9.39881 14.4341 10.0065L14.6822 10.4406L13.8139 10.9367L13.5659 10.5026C13.132 9.74319 12.9042 8.88243 12.9052 8.00671V7.25817C12.9052 7.24011 12.9062 7.22206 12.9081 7.2041C13.0383 6.00704 12.7747 4.80025 12.1582 3.76933L11.9016 3.3402L12.7598 2.82697ZM7.45711 4.01271C6.80216 4.01271 6.17328 4.2748 5.70902 4.74255C5.24463 5.21043 4.98307 5.8458 4.98307 6.50908V7.00908H3.98307V6.50908C3.98307 5.58298 4.34818 4.69407 4.99927 4.03809C5.65049 3.38199 6.53452 3.01271 7.45711 3.01271C8.37969 3.01271 9.26373 3.38199 9.91495 4.03809C10.566 4.69407 10.9311 5.58298 10.9311 6.50908V7.25817C10.9311 8.77172 11.4184 10.244 12.3192 11.4542L12.6178 11.8552L11.8157 12.4524L11.5171 12.0513C10.4874 10.6681 9.93115 8.98624 9.93115 7.25817V6.50908C9.93115 5.8458 9.66959 5.21043 9.2052 4.74255C8.74093 4.2748 8.11205 4.01271 7.45711 4.01271ZM7.9571 8.00782C7.95484 10.0485 8.57287 12.0406 9.72759 13.7163L10.0113 14.128L9.18789 14.6954L8.90417 14.2837C7.63402 12.4406 6.95471 10.2502 6.9571 8.00715M4.922 8.95107L4.97973 9.44773C5.15497 10.9556 5.59125 12.4207 6.26867 13.7765L6.49214 14.2238L5.59758 14.6708L5.37411 14.2235C4.64469 12.7636 4.17505 11.1863 3.98641 9.56317L3.92869 9.06651L4.922 8.95107Z" fill="black"/>
</svg>

<svg viewBox="0 0 15 15" fill="none" xmlns="http://www.w3.org/2000/svg" fill="currentColor"><path fill-rule="evenodd" clip-rule="evenodd" d="M10.18 1.735a5.414 5.414 0 00-5.452.004 5.471 5.471 0 00-1.994 2.016 5.528 5.528 0 00-.725 2.753v.767a16.07 16.07 0 00.649 5.085l.141.48-.959.283-.141-.48a17.096 17.096 0 01-.69-5.393v-.74a6.528 6.528 0 01.857-3.25A6.47 6.47 0 014.224.874 6.414 6.414 0 0110.683.87l.432.251-.503.864-.432-.25zm2.58 1.092l.257.43a6.53 6.53 0 01.888 4.028v.723c0 .701.182 1.39.53 1.999l.247.434-.868.496-.248-.434a5.02 5.02 0 01-.66-2.496v-.749c0-.018 0-.036.002-.054a5.53 5.53 0 00-.75-3.435l-.256-.429.858-.513zM7.457 4.013c-.655 0-1.284.262-1.748.73a2.508 2.508 0 00-.726 1.766v.5h-1v-.5c0-.926.365-1.815 1.016-2.47a3.463 3.463 0 012.458-1.026c.923 0 1.807.369 2.458 1.025A3.508 3.508 0 0110.93 6.51v.75c0 1.513.487 2.985 1.388 4.195l.299.401-.802.597-.299-.4A8.028 8.028 0 019.93 7.259V6.51c0-.663-.261-1.299-.726-1.766a2.463 2.463 0 00-1.748-.73zm.5 3.995a10.042 10.042 0 001.77 5.708l.284.412-.823.567-.284-.411a11.042 11.042 0 01-1.947-6.277m-2.035.944l.058.497a13.058 13.058 0 001.289 4.329l.223.447-.894.447-.224-.447a14.06 14.06 0 01-1.388-4.66l-.057-.497.993-.116z" fill="currentColor"/></svg>
